X:37
T: KEIN SCHOENRER TOD AUF DIESER WELT
N: B0046
O: Europa, Mitteleuropa, Deutschland
R: Kriegs -, Sieges -, Soldaten - Lied
M: 3/4
L: 1/16
K: G
D4 | G2d2d2c2c2B2 | A8
D4 | A2e2e2d2d2c2 | B8
B4 | A6F2G2B2 | A3BA4
d4 | A6F2G2B2 | A3BA4
D4 | G2d2d2c2c2B2 | A8
B4 | c3AG4A4 | B8
D4 | G2d2d2c2c2B2 | A8
B4 | c3AG4A4 | G8

@@@ Tune index: 1840
